material/.icons/material/car-battery.svg

<svg xmlns="http://www.w3.org/2000/svg" viewBox="0 0 24 24"><path d="M4 3v3H1v14h22V6h-3V3h-6v3h-4V3H4M3 8h18v10H3V8m12 2v2h-2v2h2v2h2v-2h2v-2h-2v-2h-2M5 12v2h6v-2H5z"/></svg>

<?xml version="1.0" encoding="UTF-8"?><!DOCTYPE svg PUBLIC "-//W3C//DTD SVG 1.1//EN" "http://www.w3.org/Graphics/SVG/1.1/DTD/svg11.dtd"><svg xmlns="http://www.w3.org/2000/svg" xmlns:xlink="http://www.w3.org/1999/xlink" version="1.1" id="mdi-car-battery" width="24" height="24" viewBox="0 0 24 24"><path d="M4,3V6H1V20H23V6H20V3H14V6H10V3H4M3,8H21V18H3V8M15,10V12H13V14H15V16H17V14H19V12H17V10H15M5,12V14H11V12H5Z" /></svg>
